X:616
T:Miss Cox
R:Strathspey
C:Duncan MacIntyre
B:The Athole Collection
M:C
L:1/8
K:E_
B/4c/4d/|e>EC>E B,>EG,>E|B,>E A/G/F/E/ D<FF B/4c/4d/|e>EC>E B,>EG,>E|
D/E/F B,>A G<EE B/4c/4d/|e>EC>E B,>EG,>E|B,>E A/G/F/E/ D<F ~F>A|
G/A/B E>e d/e/f B>a|g<b f>a g<e e>a|g>ed>f e>cB>G|A<F B>E D<F FG/A/|
G<E B>_D ~C2 A,>c|B<G F>A G<EE||

